img/present-icon.svg

<svg enable-background="new 0 0 64 76" height="76" viewBox="0 0 64 76" width="64" xmlns="http://www.w3.org/2000/svg"><path clip-rule="evenodd" d="m61.097 22.501h-.103-24.682c13.813-6.899 14.917-11.251 14.408-13.685-1.162-3.963-5.692-7.023-10.002-5.407-5.569 2.089-7.137 10.388-8.644 16.387-1.924-6.07-3.784-13.814-8.136-17.737-1.261-1.138-3.095-2.264-5.763-2.028-4.026.356-9.802 5.382-7.458 10.981 2.251 5.378 9.687 8.777 14.578 11.489h-22.142-.274c-1.584 0-2.879 1.291-2.879 2.869v11.322c0 1.578 1.295 2.869 2.879 2.869h.274v33.466 2.435.538h57.841v-.539-2.435-33.465h.103c1.586 0 2.88-1.291 2.88-2.869v-11.322c0-1.578-1.294-2.869-2.88-2.869zm-18.684-16.557c2.103-.31 4.982 1.299 5.255 3.209.393 2.756-3.4 5.255-5.086 6.421-2.523 1.744-4.928 2.643-7.287 4.055.884-3.69 2.549-13.011 7.118-13.685zm-22.882 9.968c-2.225-1.485-6.544-4.431-6.44-7.771.112-3.595 5.743-6.57 8.814-3.886 3.856 3.371 5.713 11.105 7.119 16.557-3.249-1.539-6.328-2.788-9.493-4.9zm5.972 57.114h-19.367v-33.465h19.368v33.465zm0-36.502h-22.457v-10.986h22.457zm10.157 0v3.037 33.466h-7.174v-33.466-3.037-10.986h7.174zm22.351 36.502h-19.367v-33.465h19.367zm2.92-36.502h-22.287v-10.986h22.287z" fill="#81b3d2" fill-rule="evenodd"/></svg>

<?xml version="1.0" encoding="utf-8"?>
<!-- Generator: Adobe Illustrator 15.0.0, SVG Export Plug-In . SVG Version: 6.00 Build 0)  -->
<!DOCTYPE svg PUBLIC "-//W3C//DTD SVG 1.1//EN" "http://www.w3.org/Graphics/SVG/1.1/DTD/svg11.dtd">
<svg version="1.1" id="Layer_1" xmlns="http://www.w3.org/2000/svg" xmlns:xlink="http://www.w3.org/1999/xlink" x="0px" y="0px"
	 width="64px" height="76px" viewBox="0 0 64 76" enable-background="new 0 0 64 76" xml:space="preserve">
<path fill-rule="evenodd" clip-rule="evenodd" fill="#81B3D2" d="M61.097,22.501h-0.103H36.312
	C50.125,15.602,51.229,11.25,50.72,8.816c-1.162-3.963-5.692-7.023-10.002-5.407c-5.569,2.089-7.137,10.388-8.644,16.387
	C30.15,13.726,28.29,5.982,23.938,2.059c-1.261-1.138-3.095-2.264-5.763-2.028c-4.026,0.356-9.802,5.382-7.458,10.981
	c2.251,5.378,9.687,8.777,14.578,11.489H3.153H2.879C1.295,22.501,0,23.792,0,25.37v11.322c0,1.578,1.295,2.869,2.879,2.869h0.274
	v33.466v2.435V76h57.841v-0.539v-2.435V39.561h0.103c1.586,0,2.88-1.291,2.88-2.869V25.37
	C63.977,23.792,62.683,22.501,61.097,22.501z M42.413,5.944c2.103-0.31,4.982,1.299,5.255,3.209c0.393,2.756-3.4,5.255-5.086,6.421
	c-2.523,1.744-4.928,2.643-7.287,4.055C36.179,15.939,37.844,6.618,42.413,5.944z M19.531,15.912
	c-2.225-1.485-6.544-4.431-6.44-7.771c0.112-3.595,5.743-6.57,8.814-3.886c3.856,3.371,5.713,11.105,7.119,16.557
	C25.775,19.273,22.696,18.024,19.531,15.912z M25.503,73.026H6.136V39.561h19.368V73.026z M25.503,36.524H3.046V25.538h22.457
	V36.524z M35.66,36.524v3.037v33.466h-7.174V39.561v-3.037V25.538h7.174V36.524z M58.011,73.026H38.644V39.561h19.367V73.026z
	 M60.931,36.524H38.644V25.538h22.287V36.524z"/>
</svg>
